X:1
T:A Fair Lady of the Plains
M:4/4
L:1/8
K:Eb
 G| A2 GG B2 BB| A2 GA G2 z G| G2 FG F F2 G| F2 GG F2 z| G| F2 GA B B2 A|\
 A2 GA G2 z G| F2 GA B2 EF| E2 GA F2 z| A| G F2 GB B2 A| G2 FG G2 z G|\
 A2 GA G G2 F| F2 GF E2 z||
